!!!!SEGMENT: pl-sa--552-a-ix-32--035_anonim--polonez.krn
!!!cenid: 18xx:546
!!!COM: Anonim
!!!COM-rismid: pe30004985
!!!CDT:
!!!CNT:
!!!OTL: Polonez
!!!PDT:
!!!AGN: Secular; Polonaise
!!!SMS-siglum: PL-SA
!!!SMS-shelfmark: 552/A IX 32
!!!SMS-shelfwork: 035 W
!!!SMS-variant:
!!!SMS-altvar:
!!!NIFC-rismid: 1001069577
!!!URL-scan: http://bc.bdsandomierz.pl/dlibra/publication/1308/edition/1276/content
!!!ONB-nifc: Str. 18, s. 3-6
!!!AIN: 2 empty
!!!key:
**kern	**kern	**dynam
*part2	*part1	*part1
*staff2	*staff1	*
*Iempty	*Iempty	*
*I"	*I"	*
*I'keyb	*I'keyb	*
*clefF4	*clefG2	*
*k[b-e-]	*k[b-e-]	*
*B-:	*B-:	*
*M3/4	*M3/4	*
=1	=1	=1
!	!LO:TX:a:i:t=Polonez	!
!	!LO:TX:a:t=P:problem=napis przed akoladą	!
8.dL 8.B-\	8dd\	.
.	4dd\	.
8.f\J	.	.
4.ryy	16dd\LL	.
.	16ee-\JJ	.
.	16een\LL	.
.	16ff\	.
.	16gg\	.
.	16ff\JJ	.
=2	=2	=2
*2\right	*2\right	*
*tremolo	*	*
!LO:TX:a:t=P:global:problem=kaudy z prawej strony przy półnutach	!	!
8e- 8A\L	8.ff\L	.
8f\	.	.
.	16ee-X\Jk	.
8e- 8A\	4.cc\	.
8f\	.	.
8e- 8A\	.	.
8f\J	8cc#X\	.
*Xtremolo	*	*
=3	=3	=3
8.dL 8.B-\	8.dd\L	.
8.f\J	16ccn\Jk	.
.	16b-\LL	.a
.	16cc\	.
8ryy	16b-\	.
.	16a\JJ	.
!LO:TX:a:t=P:problem=przekreślona kreska przed nutą (obie pięciolinie)	!	!
8E-\L	8g\L	.
8e-\J	8cc\J	.
=4	=4	=4
4c 4F\	16b-/LL	.
.	16a/	.
.	16g/	.
.	16f/JJ	.
4r	16en/LL	.
.	16f/	.
.	16g/	.
.	16a/JJ	.
4r	16b-\LL	.
.	16bn\	.
.	16cc\	.
.	16cc#X\JJ	.
=5	=5	=5
16BB-\LL	8dd\	.
16F\	.	.
16D\	4dd 4a 4f/	.
16F\JJ	.	.
*rep	*	*
16BB-\LL	.	.
16F\	.	.
16D\	16dd\LL	.
16F\JJ	16ee-\JJ	.
*Xrep	*	*
*rep	*	*
16BB-\LL	16een\LL	.
16F\	16ff\	.
16D\	16gg\	.
16F\JJ	16ff\JJ	.
*Xrep	*	*
=6	=6	=6
16AA\LL	16ff\LL	.
16F\	16ee-X\	.
16C\	16dd\	.
16F\JJ	16ee-\JJ	.
*rep	*	*
16AA\LL	4.cc\	.
16F\	.	.
16C\	.	.
16F\JJ	.	.
*Xrep	*	*
*rep	*	*
16AA\LL	.	.
16F\	.	.
16C\	8ee-\	.
16F\JJ	.	.
*Xrep	*	*
=7	=7	=7
16BB-\LL	16dd\LL	.
16F\	16ff\	.
16D\	16bb-\	.
16F\JJ	16aa\JJ	.
*rep	*	*
16BB-\LL	16gg\LL	.
16F\	16ff\	.
16D\	16ee-\	.
16F\JJ	16dd\JJ	.
*Xrep	*	*
!!LO:LB:g=original
16En\LL	16cc\LL	.
16c\	16gg\	.
16G\	16ee-\	.
16c\JJ	16cc\JJ	.
=8	=8	=8
4F\	16b-\LL	.
.	16a\	.
.	16ee-\	.
.	16a\JJ	.
8r	4cc\	.
8e- 8A 8F\	.	.
4d 4B-\	8b-\	.
.	8r	.
=9:|!|:	=9:|!|:	=9:|!|:
*tremolo	*	*
16A 16F\L	8cc\	.
16c\	.	.
16A 16F\	4cc\	.
16c\	.	.
16A 16F\	.	.
16c\	.	.
16A 16F\	16dd\LL	.
16c\	16een\JJ	.
16A 16F\	8.ff\L	.
16c\	.	.
16A 16F\	.	.
16c\J	16ff#X\Jk	.
=10	=10	=10
16B- 16En\L	16ff#X\LL	.
16c\	16gg\	.
16B- 16En\	16aa\	.
16c\	16gg\JJ	.
16B- 16En\	16ffn\LL	.
16c\	16ee-\	.
16B- 16En\	16dd\	.
16c\J	16cc\JJ	.
*Xtremolo	*	*
16.ALL 16.F\	8.aa\L	.
16.c\JJ	.	.
16ryy	16ff\Jk	.
=11	=11	=11
*tremolo	*	*
!LO:TX:a:t=P:problem=druga półnuta "c" bez kropki	!	!
16A 16F\L	8cc\	.
16c\	.	.
16A 16F\	4cc\	.
16c\	.	.
16A 16F\	.	.
16c\	.	.
16A 16F\	16dd\LL	.
16c\	16een\JJ	.
16A 16F\	8.ff\L	.
16c\	.	.
16A 16F\	.	.
16c\J	16ff#X\Jk	.
=12	=12	=12
16B- 16En\L	16ff#X\LL	.
16c\	16gg\	.
16B- 16En\	16aa\	.
16c\	16gg\JJ	.
16B- 16En\	16ffn\LL	.
16c\	16ee-\	.
16B- 16En\	16dd\	.
16c\J	16cc\JJ	.
*Xtremolo	*	*
4A 4F\	8.ff\L	.
!	!LO:TX:i:b:t=P. D. Capo	!
!	!LO:TX:b:t=P:problem=napis za kreską pomiędzy pięcioliniami	!
.	16ee-X\Jk	.
!!LO:LB:g=original
=13||	=13||	=13||
*k[b-e-a-]	*k[b-e-a-]	*
*E-:	*E-:	*
!	!LO:TX:a:i:t=Trio	!
!	!LO:TX:a:t=P:problem=napis przed akoladą	!
8E-\L	4..ee-\	.
8gJ 8e- 8B-\	.	.
*tremolo	*	*
8g 8e- 8B-\L	.	.
8g 8e- 8B-\	.	.
.	16b-\	.
8g 8e- 8B-\	8.gg\L	.
8g 8e- 8B-\J	.	.
.	16ee-\Jk	.
=14	=14	=14
*rep	*	*
!LO:TX:b:t=P:problem=brak oznaczeń cyfrowych nad powtórzeniami	!	!
8E-\L	8.bb-\L	.
8gJ 8e- 8B-\	.	.
.	16gg\Jk	.
*tremolo	*	*
8g 8e- 8B-\L	4.ee-\	.
8g 8e- 8B-\	.	.
8g 8e- 8B-\	.	.
8g 8e- 8B-\J	8gg\	.
*Xtremolo	*	*
*Xrep	*	*
*clefG2	*	*
=15	=15	=15
*	*Xtuplet	*
8cc 8a- 8f 8d/	12ff'>\L	.
.	12gg'>\	.
8r	.	.
.	12aa-'>\J	.
*rep	*	*
8cc 8a- 8f 8d/	12dd'>\L	.
.	12ee-'>\	.
*Xrep	*	*
8r	.	.
.	12ff'>\J	.
*rep	*	*
8cc 8a- 8f 8d/	12b-'>\L	.
.	12cc'>\	.
*Xrep	*	*
8r	.	.
.	12dd'>\J	.
=16	=16	=16
4g 4e-/	12ee-'>\L	.
.	12gg'>\	.
.	12ee-'>\J	.
*clefF4	*	*
8r	12b-'>\L	.
.	12b-'>\	.
8B- 8G\	.	.
.	12b-'>\J	.
8.A-L 8.F\	12b-'>\L	.
.	12cc'>\	.
.	12dd'>\J	.
16FJk 16BB-\	.	.
=17	=17	=17
8E-\L	4ee-\	fp
8e-J 8B-\	.	.
*tremolo	*	*
8e- 8B-\L	16ee-\LL	.
.	16b-\	.
8e- 8B-\	16an\	.
.	16b-\JJ	.
8e- 8B-\	16gg\LL	.
.	16ee-\	.
8e- 8B-\J	16dd\	.
.	16ee-\JJ	.
*Xtremolo	*	*
=18	=18	=18
*rep	*	*
8E-\L	16bb-\LL	.
.	16aan\	.
8e-J 8B-\	16bb-\	.
.	16gg\JJ	.
*tremolo	*	*
8e- 8B-\L	4.ee-\	.
8e- 8B-\	.	.
8e- 8B-\	.	.
8e- 8B-\J	8gg\	.
*Xtremolo	*	*
*Xrep	*	*
*clefG2	*	*
=19	=19	=19
8a- 8f 8d 8B-/	16ff\LL	.
.	16gg\	.
8r	16aa-\	.
.	16ff\JJ	.
*rep	*	*
8a- 8f 8d 8B-/	16dd\LL	.
.	16ee-\	.
*Xrep	*	*
8r	16ff\	.
.	16dd\JJ	.
*rep	*	*
8a- 8f 8d 8B-/	16b-\LL	.
.	16cc\	.
*Xrep	*	*
8r	16dd\	.
.	16ee-\JJ	.
=20	=20	=20
8gL 8e-/	16ff\LL	.
.	16ee-\	.
8a-J 8f 8B-/	16gg\	.
.	16ff\JJ	.
8r	4ff\	.
8a- 8f 8B-/	.	.
4g 4e-/	8ee-\	.
.	8r	.
!LO:CL:ed	!	!
*clefF4	*	*
!!LO:LB:g=original
=21:|!|:	=21:|!|:	=21:|!|:
16BB-\LL	8ff 8dd\	.
16F\	.	.
16D\	4ff 4dd 4f\	.
16F\JJ	.	.
*rep	*	*
16BB-\LL	.	.
16F\	.	.
16D\	16gg\LL	.
16F\JJ	16ff\JJ	.
*Xrep	*	*
16FF/LL	16dd\LL	.
16F/	16ee-\	.
16C/	16cc\	.
16F/JJ	16an\JJ	.
=22	=22	=22
*rep	*	*
16BB-\LL	8b-\	.
16F\	.	.
16D\	4b- 4f 4d/	.
16F\JJ	.	.
16BB-\LL	.	.
16F\	.	.
16D\	16dd\LL	.
16F\JJ	16b-\JJ	.
16FF/LL	16an/LL	.
16F/	16cc/	.
16C/	16a/	.
16F/JJ	16f/JJ	.
*Xrep	*	*
=23	=23	=23
*rep	*	*
16BB-\LL	16b-\LL	.
16F\	16dd\JJ	.
16D\	4ff 4dd 4f\	.
16F\JJ	.	.
16BB-\LL	.	.
16F\	.	.
16D\	16gg\LL	.
16F\JJ	16ff\JJ	.
16FF/LL	16dd\LL	.
16F/	16ee-\	.
16C/	16cc\	.
16F/JJ	16an\JJ	.
*Xrep	*	*
=24	=24	=24
4D 4BB-/	16b-\LL	.
.	16cc\	.
.	16dd\	.
.	16ee-\JJ	.
4r	16ff\LL	.
.	16gg\	.
.	16aa-X\	.
.	16gg\JJ	.
4r	16bb-\LL	.
.	16aa-\	.
.	16ff\	.
.	16dd\JJ	.
!	!LO:TX:i:b:t=Trio Da Capo	!
!	!LO:TX:b:t=P:problem=napis za kreską pomiędzy pięcioliniami	!
==	==	==
*-	*-	*-
!!!system-decoration: [(s1,s2)]
!!!RDF**kern: > = above
!!!RDF**kern: < = below
!!!EED: Mateusz Mrugas
!!!EST: 2020-12-13
!!!ENC: Marta Chmielewska
!!!END: 2020-06-18
